X:40
T:He That Has a Bonny Lassie &c.
S:Petrie's Third Collection of Strathspey Reels and Country Dances &c.
Z:Steve Wyrick , 7/30/05
N:Petrie's Third Collection, page 16
L:1/8
M:C
R:Reel
K:Gm
A|BGdB Bcdf|AFcF {B}A2FA|BGdG Bcdg|(fTdcA) G2G:|d|gagd gagd|fgfd {B}A2FA|
gagd gagd|Bdgd B2Gd|gagd gagd|fgfc A2FA|BGdG Bcdg|fdTcA G2G|]
